rotcl.svg

<?xml version="1.0" encoding="UTF-8" standalone="no"?>
<!-- Created with Inkscape (http://www.inkscape.org/) -->

<svg
   xmlns:dc="http://purl.org/dc/elements/1.1/"
   xmlns:cc="http://creativecommons.org/ns#"
   xmlns:rdf="http://www.w3.org/1999/02/22-rdf-syntax-ns#"
   xmlns:svg="http://www.w3.org/2000/svg"
   xmlns="http://www.w3.org/2000/svg"
   xmlns:inkscape="http://www.inkscape.org/namespaces/inkscape"
   version="1.1"
   width="450"
   height="135"
   id="svg2"
   xml:space="preserve"><metadata
     id="metadata8"><rdf:RDF><cc:Work
         rdf:about=""><dc:format>image/svg+xml</dc:format><dc:type
           rdf:resource="http://purl.org/dc/dcmitype/StillImage" /></cc:Work></rdf:RDF></metadata><defs
     id="defs6"><clipPath
       id="clipPath16"><path
         d="M 0,0 360,0 360,108 0,108 0,0 z"
         inkscape:connector-curvature="0"
         id="path18" /></clipPath></defs><g
     transform="matrix(1.25,0,0,-1.25,0,135)"
     id="g10"><g
       id="g12"><g
         clip-path="url(#clipPath16)"
         id="g14"><path
           d="M 0,108 360,108 360,0 0,0 0,108 z"
           inkscape:connector-curvature="0"
           id="path20"
           style="fill:#ffffff;fill-opacity:0;fill-rule:evenodd;stroke:none" /><g
           id="g22"><path
             d="m 136.6,60.7 -19.5,0"
             inkscape:connector-curvature="0"
             id="path24"
             style="fill:none;stroke:#000000;stroke-width:0.69999999;stroke-linecap:butt;stroke-linejoin:miter;stroke-miterlimit:10;stroke-opacity:1;stroke-dasharray:none" /></g><path
           d="m 107.8,60.7 9.7,-3.3 0,6.5 -9.7,-3.2 z"
           inkscape:connector-curvature="0"
           id="path26"
           style="fill:#000000;fill-opacity:1;fill-rule:evenodd;stroke:none" /><g
           id="g28"><text
             transform="matrix(1,0,0,-1,125.7,79.6)"
             id="text30"><tspan
               x="0 9.1850004 16.489"
               y="0"
               id="tspan32"
               style="font-size:11px;font-variant:normal;font-weight:normal;writing-mode:lr-tb;fill:#1a1a1a;fill-opacity:1;fill-rule:nonzero;stroke:none;font-family:Liberation Sans;-inkscape-font-specification:LiberationSans">MSB</tspan></text>
</g><g
           id="g34"><text
             transform="matrix(1,0,0,-1,294.9,79.6)"
             id="text36"><tspan
               x="0 6.105 13.409"
               y="0"
               id="tspan38"
               style="font-size:11px;font-variant:normal;font-weight:normal;writing-mode:lr-tb;fill:#1a1a1a;fill-opacity:1;fill-rule:nonzero;stroke:none;font-family:Liberation Sans;-inkscape-font-specification:LiberationSans">LSB</tspan></text>
</g><path
           d="m 221.2,42.7 -84.7,0 0,32.4 169.2,0 0,-32.4 -84.5,0 z"
           inkscape:connector-curvature="0"
           id="path40"
           style="fill:#ffffff;fill-opacity:1;fill-rule:evenodd;stroke:none" /><g
           id="g42"><path
             d="m 221.2,42.7 -84.7,0 0,32.4 169.2,0 0,-32.4 -84.5,0 z"
             inkscape:connector-curvature="0"
             id="path44"
             style="fill:none;stroke:#000000;stroke-width:0.70749998;stroke-linecap:butt;stroke-linejoin:round;stroke-miterlimit:10;stroke-opacity:1;stroke-dasharray:none" /></g><g
           id="g46"><text
             transform="matrix(1,0,0,-1,214.1,55)"
             id="text48"><tspan
               x="0 7.8979998"
               y="0"
               id="tspan50"
               style="font-size:11px;font-variant:normal;font-weight:normal;writing-mode:lr-tb;fill:#1a1a1a;fill-opacity:1;fill-rule:nonzero;stroke:none;font-family:Liberation Sans;-inkscape-font-specification:LiberationSans">Rn</tspan></text>
</g><g
           id="g52"><text
             transform="matrix(1,0,0,-1,11,55.3)"
             id="text54"><tspan
               x="0 7.8979998 16.587999 23.287001 31.184999"
               y="0"
               id="tspan56"
               style="font-size:11px;font-variant:normal;font-weight:normal;writing-mode:lr-tb;fill:#1a1a1a;fill-opacity:1;fill-rule:nonzero;stroke:none;font-family:Liberation Sans;-inkscape-font-specification:LiberationSans">ROTCL</tspan></text>
</g><path
           d="m 96.8,42.7 -10.1,0 0,32.4 20.3,0 0,-32.4 -10.2,0 z"
           inkscape:connector-curvature="0"
           id="path58"
           style="fill:#ffffff;fill-opacity:1;fill-rule:evenodd;stroke:none" /><g
           id="g60"><path
             d="m 96.8,42.7 -10.1,0 0,32.4 20.3,0 0,-32.4 -10.2,0 z"
             inkscape:connector-curvature="0"
             id="path62"
             style="fill:none;stroke:#000000;stroke-width:0.70749998;stroke-linecap:butt;stroke-linejoin:round;stroke-miterlimit:10;stroke-opacity:1;stroke-dasharray:none" /></g><g
           id="g64"><text
             transform="matrix(1,0,0,-1,93.5,55)"
             id="text66"><tspan
               x="0"
               y="0"
               id="tspan68"
               style="font-size:11px;font-variant:normal;font-weight:normal;writing-mode:lr-tb;fill:#1a1a1a;fill-opacity:1;fill-rule:nonzero;stroke:none;font-family:Liberation Sans;-inkscape-font-specification:LiberationSans">T</tspan></text>
</g><g
           id="g70"><path
             d="m 327.4,60.7 -12.3,0"
             inkscape:connector-curvature="0"
             id="path72"
             style="fill:none;stroke:#000000;stroke-width:0.69999999;stroke-linecap:butt;stroke-linejoin:miter;stroke-miterlimit:10;stroke-opacity:1;stroke-dasharray:none" /></g><path
           d="m 305.8,60.7 9.7,-3.3 0,6.5 -9.7,-3.2 z"
           inkscape:connector-curvature="0"
           id="path74"
           style="fill:#000000;fill-opacity:1;fill-rule:evenodd;stroke:none" /><g
           id="g76"><path
             d="m 327.4,60.7 0,-36"
             inkscape:connector-curvature="0"
             id="path78"
             style="fill:none;stroke:#000000;stroke-width:0.70749998;stroke-linecap:butt;stroke-linejoin:round;stroke-miterlimit:10;stroke-opacity:1;stroke-dasharray:none" /></g><g
           id="g80"><path
             d="m 327.4,24.7 -252,0"
             inkscape:connector-curvature="0"
             id="path82"
             style="fill:none;stroke:#000000;stroke-width:0.70749998;stroke-linecap:butt;stroke-linejoin:round;stroke-miterlimit:10;stroke-opacity:1;stroke-dasharray:none" /></g><g
           id="g84"><path
             d="m 75.4,60.7 0,-36"
             inkscape:connector-curvature="0"
             id="path86"
             style="fill:none;stroke:#000000;stroke-width:0.70749998;stroke-linecap:butt;stroke-linejoin:round;stroke-miterlimit:10;stroke-opacity:1;stroke-dasharray:none" /></g><g
           id="g88"><path
             d="m 75.4,60.7 10.8,0"
             inkscape:connector-curvature="0"
             id="path90"
             style="fill:none;stroke:#000000;stroke-width:0.70749998;stroke-linecap:butt;stroke-linejoin:round;stroke-miterlimit:10;stroke-opacity:1;stroke-dasharray:none" /></g></g></g></g></svg>

<svg xmlns="http://www.w3.org/2000/svg" width="450" height="135" xml:space="preserve"><defs><clipPath id="a"><path d="M0 0h360v108H0V0z"/></clipPath></defs><g clip-path="url(#a)" transform="matrix(1.25 0 0 -1.25 0 135)"><path d="M0 108h360V0H0v108z" style="fill:#fff;fill-opacity:0;fill-rule:evenodd;stroke:none"/><path d="M136.6 60.7h-19.5" style="fill:none;stroke:#000;stroke-width:.69999999;stroke-linecap:butt;stroke-linejoin:miter;stroke-miterlimit:10;stroke-opacity:1;stroke-dasharray:none"/><path d="m107.8 60.7 9.7-3.3v6.5l-9.7-3.2z" style="fill:#000;fill-opacity:1;fill-rule:evenodd;stroke:none"/><text transform="matrix(1 0 0 -1 125.7 79.6)"><tspan x="0 9.1850004 16.489" y="0" style="font-size:11px;font-variant:normal;font-weight:400;writing-mode:lr-tb;fill:#1a1a1a;fill-opacity:1;fill-rule:nonzero;stroke:none;font-family:Liberation Sans;-inkscape-font-specification:LiberationSans">MSB</tspan></text><text transform="matrix(1 0 0 -1 294.9 79.6)"><tspan x="0 6.105 13.409" y="0" style="font-size:11px;font-variant:normal;font-weight:400;writing-mode:lr-tb;fill:#1a1a1a;fill-opacity:1;fill-rule:nonzero;stroke:none;font-family:Liberation Sans;-inkscape-font-specification:LiberationSans">LSB</tspan></text><path d="M221.2 42.7h-84.7v32.4h169.2V42.7h-84.5z" style="fill:#fff;fill-opacity:1;fill-rule:evenodd;stroke:none"/><path d="M221.2 42.7h-84.7v32.4h169.2V42.7h-84.5z" style="fill:none;stroke:#000;stroke-width:.70749998;stroke-linecap:butt;stroke-linejoin:round;stroke-miterlimit:10;stroke-opacity:1;stroke-dasharray:none"/><text transform="matrix(1 0 0 -1 214.1 55)"><tspan x="0 7.8979998" y="0" style="font-size:11px;font-variant:normal;font-weight:400;writing-mode:lr-tb;fill:#1a1a1a;fill-opacity:1;fill-rule:nonzero;stroke:none;font-family:Liberation Sans;-inkscape-font-specification:LiberationSans">Rn</tspan></text><text transform="matrix(1 0 0 -1 11 55.3)"><tspan x="0 7.8979998 16.587999 23.287001 31.184999" y="0" style="font-size:11px;font-variant:normal;font-weight:400;writing-mode:lr-tb;fill:#1a1a1a;fill-opacity:1;fill-rule:nonzero;stroke:none;font-family:Liberation Sans;-inkscape-font-specification:LiberationSans">ROTCL</tspan></text><path d="M96.8 42.7H86.7v32.4H107V42.7H96.8z" style="fill:#fff;fill-opacity:1;fill-rule:evenodd;stroke:none"/><path d="M96.8 42.7H86.7v32.4H107V42.7H96.8z" style="fill:none;stroke:#000;stroke-width:.70749998;stroke-linecap:butt;stroke-linejoin:round;stroke-miterlimit:10;stroke-opacity:1;stroke-dasharray:none"/><text transform="matrix(1 0 0 -1 93.5 55)"><tspan x="0" y="0" style="font-size:11px;font-variant:normal;font-weight:400;writing-mode:lr-tb;fill:#1a1a1a;fill-opacity:1;fill-rule:nonzero;stroke:none;font-family:Liberation Sans;-inkscape-font-specification:LiberationSans">T</tspan></text><path d="M327.4 60.7h-12.3" style="fill:none;stroke:#000;stroke-width:.69999999;stroke-linecap:butt;stroke-linejoin:miter;stroke-miterlimit:10;stroke-opacity:1;stroke-dasharray:none"/><path d="m305.8 60.7 9.7-3.3v6.5l-9.7-3.2z" style="fill:#000;fill-opacity:1;fill-rule:evenodd;stroke:none"/><path d="M327.4 60.7v-36M327.4 24.7h-252M75.4 60.7v-36M75.4 60.7h10.8" style="fill:none;stroke:#000;stroke-width:.70749998;stroke-linecap:butt;stroke-linejoin:round;stroke-miterlimit:10;stroke-opacity:1;stroke-dasharray:none"/></g></svg>
